X:46
T:Why did you promise to Marry me
S:John Moore's Book 1
Z:Transcribed by David Jacobs  April 2021
%%VWML: Moore1-4493-p30-0
F:http://www.vwml.org/record/Moore1/4493/p30
M:9/8
L:1/8
K:D
d2d dfd c2A|d2ddef gfe|d2d dfd !trill!c2 A|BGB Bcd ecA:|
|:f2d dfd c2A|f2d def gfe|agf (e/fg)e !trill!c2A|BGB Bcd ecA:|
|:afd afd !trill!c2A|afd afdefg|agf (e/fg)e!trill!c2A|BGB Bcd ecA:|]

